src/assets/images/template_image/2.svg

<svg width="48" height="48" viewBox="0 0 48 48" fill="none" xmlns="http://www.w3.org/2000/svg"><path opacity=".2" d="M24 46C36.1503 46 46 36.1503 46 24 46 11.8497 36.1503 2 24 2 11.8497 2 2 11.8497 2 24 2 36.1503 11.8497 46 24 46z" fill="#f6944d"/><path d="M36 23.1538C36 27.96 33.1029 32.0723 28.9543 33.9338 27.4858 34.6446 25.8343 35 24 35 22.1657 35 20.52 34.6446 19.0629 33.9338 14.8971 32.0723 12 27.96 12 23.1538H36zM18.96 13C18.5829 15.1492 19.0286 15.6062 19.7486 16.4523 21.6686 18.6862 21.5314 19.5154 21.2743 21.4615H19.56C20.1429 19.1431 19.1657 18.4154 18.7886 18.0092 17.3143 16.4692 16.9029 14.8785 17.2629 13H18.96zm4.2514.0C22.8343 15.1323 23.28 15.6062 24 16.4523 25.92 18.6862 25.7829 19.5154 25.5257 21.4615H23.8114C24.4114 19.1431 23.4343 18.4154 23.04 18.0092 21.5657 16.4692 21.1543 14.8785 21.5143 13H23.2114zm4.32.0C27.1543 15.1492 27.6 15.6062 28.32 16.4523 30.24 18.6862 30.1029 19.5154 29.8457 21.4615H28.1314C28.7143 19.1431 27.7371 18.4154 27.36 18.0092 25.8857 16.4692 25.4743 14.8785 25.8343 13H27.5314z" fill="#f6944d"/></svg>

<svg width="48" height="48" fill="none" xmlns="http://www.w3.org/2000/svg"><path opacity=".2" d="M24 46c12.15 0 22-9.85 22-22S36.15 2 24 2 2 11.85 2 24s9.85 22 22 22z" fill="#f6944d"/><path d="M36 23.154c0 4.806-2.897 8.918-7.046 10.78C27.486 34.644 25.834 35 24 35c-1.834 0-3.48-.355-4.937-1.066C14.897 32.072 12 27.96 12 23.154h24zM18.96 13c-.377 2.15.069 2.606.789 3.452 1.92 2.234 1.782 3.063 1.525 5.01H19.56c.583-2.319-.394-3.047-.771-3.453-1.475-1.54-1.886-3.13-1.526-5.009h1.697zm4.251 0c-.377 2.132.069 2.606.789 3.452 1.92 2.234 1.783 3.063 1.526 5.01H23.81c.6-2.319-.377-3.047-.771-3.453-1.474-1.54-1.886-3.13-1.526-5.009h1.697zm4.32 0c-.377 2.15.069 2.606.789 3.452 1.92 2.234 1.783 3.063 1.526 5.01H28.13c.583-2.319-.394-3.047-.771-3.453-1.474-1.54-1.886-3.13-1.526-5.009h1.697z" fill="#f6944d"/></svg>
